X:10014
T:Juliana
R:Jig
C:Trad.
O:England
Z:Paul Hardy's Session Tunebook 2015 (see www.paulhardy.net). Creative Commons cc by-nc-sa licenced.
M:6/8
L:1/8
Q:3/8=100
K:G
|:"G"DED G2B|BAF GBc|d2e dcB|"D"cBc A2D|
"G"DED G2B|"D"cAF "G"GBd|"C"cge "G"dBG|"D7"cAF "G"G2G:|
|:"D"A2d edc|"G"Bdc BAG|"D"Add d^cd|"G"BdB GBd|
"C"ecg gec|"G"dBg gdB|"C"ecA "G"dBG|"D7"FGA D2d:|
|:"G"B2A "C"c2B|"G"BAG "C"E2G|"G"D2G "A"A2B|"D"dcB "D7"ABc|
"G"B2A "C"c2B|"G"BAG "C"E2G|"G"D2B "D"dcB|"D7"A3 "G"G3:|

